_site/images/homepage/checked.svg

<svg fill="none" height="30" viewBox="0 0 30 30" width="30" xmlns="http://www.w3.org/2000/svg"><rect fill="#65a2fd" height="30" rx="7" width="30"/><path clip-rule="evenodd" d="m15 6c-4.9706 0-9 4.0294-9 9s4.0294 9 9 9 9-4.0294 9-9c0-2.3869-.9482-4.6761-2.636-6.36396-1.6879-1.68783-3.9771-2.63604-6.364-2.63604zm2.4477 6.1111-3.861 3.87-1.485-1.485c-.22-.2569-.5653-.3687-.8941-.2896-.3288.079-.5855.3357-.6645.6645-.0791.3288.0327.6741.2896.8941l2.115 2.124c.1698.1684.3998.2624.639.261.2361-.001.4624-.0947.63-.261l4.5-4.5c.1704-.169.2662-.399.2662-.639s-.0958-.47-.2662-.639c-.351-.349-.918-.349-1.269 0zm-9.64777 2.8887c0 3.9765 3.22357 7.2 7.19997 7.2 1.9096 0 3.7409-.7586 5.0912-2.1088 1.3503-1.3503 2.1088-3.1816 2.1088-5.0912 0-3.9764-3.2235-7.2-7.2-7.2-3.9764 0-7.19997 3.2236-7.19997 7.2z" fill="#fff" fill-rule="evenodd"/></svg>

<svg width="30" height="30" viewBox="0 0 30 30" fill="none" xmlns="http://www.w3.org/2000/svg">
<rect width="30" height="30" rx="7" fill="#65A2FD"/>
<path fill-rule="evenodd" clip-rule="evenodd" d="M15 6C10.0294 6 6 10.0294 6 15C6 19.9706 10.0294 24 15 24C19.9706 24 24 19.9706 24 15C24 12.6131 23.0518 10.3239 21.364 8.63604C19.6761 6.94821 17.3869 6 15 6ZM17.4477 12.1111L13.5867 15.9811L12.1017 14.4961C11.8817 14.2392 11.5364 14.1274 11.2076 14.2065C10.8788 14.2855 10.6221 14.5422 10.5431 14.871C10.464 15.1998 10.5758 15.5451 10.8327 15.7651L12.9477 17.8891C13.1175 18.0575 13.3475 18.1515 13.5867 18.1501C13.8228 18.1491 14.0491 18.0554 14.2167 17.8891L18.7167 13.3891C18.8871 13.2201 18.9829 12.9901 18.9829 12.7501C18.9829 12.5101 18.8871 12.2801 18.7167 12.1111C18.3657 11.7621 17.7987 11.7621 17.4477 12.1111ZM7.79993 14.9998C7.79993 18.9763 11.0235 22.1998 14.9999 22.1998C16.9095 22.1998 18.7408 21.4412 20.0911 20.091C21.4414 18.7407 22.1999 16.9094 22.1999 14.9998C22.1999 11.0234 18.9764 7.7998 14.9999 7.7998C11.0235 7.7998 7.79993 11.0234 7.79993 14.9998Z" fill="white"/>
</svg>
